images/layered-peaks-haikei.svg

<svg width="900" height="600" xmlns="http://www.w3.org/2000/svg"><path fill="#931C1C" d="M0 0h900v600H0z"/><path d="m0 378 129 18 128 14 129-20 128-16 129 24 128-33 129 52v184H0Z" fill="#f5730a"/><path d="m0 402 129 52 128 7 129-33 128-20 129 49 128-39 129 28v155H0Z" fill="#da5b09"/><path d="m0 490 129 11 128-17 129-12 128 8 129-37 128-4 129 49v113H0Z" fill="#be4407"/><path d="m0 511 129-25 128 47 129-25 128 31 129-3 128-51 129 25v91H0Z" fill="#a32d04"/><path d="m0 533 129 40 128-16 129-15 128 11 129 16 128-43 129 38v37H0Z" fill="#871400"/></svg>

<svg id="visual" viewBox="0 0 900 600" width="900" height="600" xmlns="http://www.w3.org/2000/svg" xmlns:xlink="http://www.w3.org/1999/xlink" version="1.1"><rect x="0" y="0" width="900" height="600" fill="#931C1C"></rect><path d="M0 378L129 396L257 410L386 390L514 374L643 398L771 365L900 417L900 601L771 601L643 601L514 601L386 601L257 601L129 601L0 601Z" fill="#f5730a"></path><path d="M0 402L129 454L257 461L386 428L514 408L643 457L771 418L900 446L900 601L771 601L643 601L514 601L386 601L257 601L129 601L0 601Z" fill="#da5b09"></path><path d="M0 490L129 501L257 484L386 472L514 480L643 443L771 439L900 488L900 601L771 601L643 601L514 601L386 601L257 601L129 601L0 601Z" fill="#be4407"></path><path d="M0 511L129 486L257 533L386 508L514 539L643 536L771 485L900 510L900 601L771 601L643 601L514 601L386 601L257 601L129 601L0 601Z" fill="#a32d04"></path><path d="M0 533L129 573L257 557L386 542L514 553L643 569L771 526L900 564L900 601L771 601L643 601L514 601L386 601L257 601L129 601L0 601Z" fill="#871400"></path></svg>
